X: 91
T: Anla Artık Anla Beni
C: Yıldırım Gürses
O: Turkey
F: http://compmusic.upf.edu/node/140
N: nihavent--sarki--sofyan--anla_artik--yildirim_gurses
N: makam= nihavent
N: form= sarki
N: usul= sofyan = 4/4
M: 4/4
L: 1/16
K: C _B _e  
Q: 1/4=138
%%MIDI tuningsystem comma53
g8 gagf gagf  | gagf gagf g8  | z2ga b2a2 g2f2 f4  | 
w:  ARANAĞME  |   |   | 
f8 fgf=e fgfe  | fgf=e fgfe f8  | z2fg a2g2 f2e2 e4  | 
w:   |   |   | 
e8 efed efed  | efed efed e8  | e2f2 g2a2 c'bag bagf  | 
w:   |   |   | 
agfe gfed d8  | c3B d3c (3B2c2B2 A4  | \
w:   |   | 
B3A c3B (3A2B2A2 G4  | 
w:   | 
c3B d3c (3B2c2B2 A4  | B3A c3B (3A2B2A2 G4  | \
w:   |   | 
G2z2 B3d z2c2 B2A2  | 
w:   | 
G2z2 B3d z2g2 g4  | G2z2 B3d z2c2 B2A2  | \
w:   |   | 
G2z2 B3d z2g2 g4  | 
w:   | 
z2d2 g2a2 b8  | z2ab c'bag b8  | z2ab c'bag b4 a4  | 
w:  SAZ  |   |   | 
g4 f4 e8  | z2c2 e2g2 a8  | z2a2 g2^f2 a8  | \
w:   |   |   | 
z2a2 g2^f2 a4 g4  | b4 a4 g8  | 
w:   |   | 
z2d2 e2d2 c=Bcd edef  | g2c2 d2c2 BABc dcde  | 
w:   |   | 
f2B2 c2B2 A4 e4  | d4 ^c4 d8  | z2d2 e2d2 c=Bcd edef  | 
w:   |   |   | 
g2c2 d2c2 BABc dcde  | f2B2 c2B2 A4 e4  | \
w:   |   | 
d4 A2B2 G8  | 
w:   | 
z2b2 b2a2 g8  | z2a2 a2g2 ^f8  | z2a2 a2g2 ^f8  | \
w:  An la  ar tık   |  an la  be ni    |  U nut  bü tün   | 
z2d2 e2^f2 g8  | z2b2 b2a2 g8  | 
w:  ge çen le ri    |  An la  ar tık   | 
z2a2 a2g2 ^f8  | z2a2 a2g2 ^f8  | z2d2 e2^f2 g8  | \
w:  an la  be ni    |  U nut  bü tün   |  ge çen le ri    | 
z2d2 e2d2 c=Bcd edef  | 
w:  Bit sin  her  şey   | 
g2c2 d2c2 BABc dcde  | f2B2 c2B2 A4 e4  | \
w:  *  bü tün_ aş kım    |  *  Bu nu  sen den  di  | 
d4 ^c4 d8  | 
w:  li yo rum    | 
z2d2 e2d2 c=Bcd edef  | g2c2 d2c2 BABc dcde  | 
w:  Bit sin  her  şey   |  *  bü tün_ aş kım    | 
f2B2 c2B2 A4 e4  | d4 A2B2 G8  | z2d2 g2a2 b8  | \
w:  *  Bu nu  sen den  di  |  li yo *  rum    |  Bi li yo rum   | 
z2b2 a2g2 b8  | z2b2 a2g2 b4 a2g2  | 
w:  a yı ra cak    |  Bu  son  mek tup  i  | 
b4 a2g2 a8  | z2d2 ^f2g2 a8  | z2a2 g2^f2 a8  | \
w:  ki mi *  zi    |  Bu  son  mek tup   |  ko pa ra cak    | 
z2a2 g2^f2 a4 g4  | b4 a4 g8  | 
w:  Yıl lar  sü ren  sev  |  gi mi zi    | 
z2d2 g2a2 b8  | z2b2 a2g2 b8  | z2b2 a2g2 b4 a2g2  | \
w:  Bi li yo rum   |  a yı ra cak    |  Bu  son  mek tup  i  | 
b4 a2g2 a8  | 
w:  ki mi *  zi    | 
z2d2 ^f2g2 a8  | z2a2 g2^f2 a8  | z2a2 g2^f2 a4 g4  | \
w:  Bu  son  mek tup   |  ko pa ra cak    |  Yıl lar  sü ren  sev  | 
b4 a4 g8  | z2d2 e2d2 c=Bcd edef  | 
w:  gi mi zi    |  Bit sin  her  şey   | 
g2c2 d2c2 BABc dcde  | f2B2 c2B2 A4 e4  | \
w:  *  bü tün_ aş kım    |  *  Bu nu  sen den  di  | 
d4 ^c4 d8  | 
w:  li yo rum    | 
z2d2 e2d2 c=Bcd edef  | g2c2 d2c2 BABc dcde  | 
w:  Bit sin  her  şey   |  *  bü tün_ aş kım    | 
f2B2 c2B2 A4 e4  | d4 A2B2 G8  | z2d2 g2a2 b8  | \
w:  *  Bu nu  sen den  di  |  li yo *  rum    |  SAZ  | 
z2ab c'bag b8  | 
w:   | 
z2ab c'bag b4 a4  | g4 f4 e8  | z2c2 e2g2 a8  | \
w:   |   |   | 
z2a2 g2^f2 a8  | 
w:   | 
z2a2 g2^f2 a4 g4  | b4 a4 g8  | z2d2 e2d2 c=Bcd edef  | 
w:   |   |   | 
g2c2 d2c2 BABc dcde  | f2B2 c2B2 A4 e4  | \
w:   |   | 
d4 ^c4 d8  | 
w:   | 
z2d2 e2d2 c=Bcd edef  | g2c2 d2c2 BABc dcde  | 
w:   |   | 
f2B2 c2B2 A4 e4  | d4 A2B2 G8  | z2b2 b2a2 g8  | \
w:   |   |  An la  ar tık   | 
z2a2 a2g2 ^f8  | z2a2 a2g2 ^f8  | 
w:  an la  be ni    |  U nut  bü tün   | 
z2d2 e2^f2 g8  | z2b2 b2a2 g8  | z2a2 a2g2 ^f8  | \
w:  ge çen le ri    |  An la  ar tık   |  an la  be ni    | 
z2a2 a2g2 ^f8  | z2d2 e2^f2 g8  | 
w:  U nut  bü tün   |  ge çen le ri    | 
z2d2 e2d2 c=Bcd edef  | g2c2 d2c2 BABc dcde  | 
w:  Bit sin  her  şey   |  *  bü tün_ aş kım    | 
f2B2 c2B2 A4 e4  | d4 ^c4 d8  | z2d2 e2d2 c=Bcd edef  | 
w:  *  Bu nu  sen den  di  |  li yo rum    |  Bit sin  her  şey   | 
g2c2 d2c2 BABc dcde  | f2B2 c2B2 A4 e4  | \
w:  *  bü tün_ aş kım    |  *  Bu nu  sen den  di  | 
d4 ^f4 g8  | 
w:  KARAR  | 
|


